svgs/light/van-shuttle.svg

<svg xmlns="http://www.w3.org/2000/svg" viewBox="0 0 640 512"><!--! Font Awesome Pro 6.6.0 by @fontawesome - https://fontawesome.com License - https://fontawesome.com/license (Commercial License) Copyright 2024 Fonticons, Inc. --><path d="M32 88l0 104 128 0 0-128L56 64C42.7 64 32 74.7 32 88zm0 136l0 104c0 13.3 10.7 24 24 24l13.5 0c13.2-37.3 48.7-64 90.5-64s77.4 26.7 90.5 64l138.9 0c13.2-37.3 48.7-64 90.5-64s77.4 26.7 90.5 64l13.5 0c13.3 0 24-10.7 24-24l0-104-240 0-192 0L32 224zm160-32l160 0 0-128L192 64l0 128zm192 0l204.1 0L477.6 69.3c-3-3.4-7.4-5.3-11.9-5.3L384 64l0 128zM584 384l-8 0c0 53-43 96-96 96s-96-43-96-96l-128 0c0 53-43 96-96 96s-96-43-96-96l-8 0c-30.9 0-56-25.1-56-56L0 88C0 57.1 25.1 32 56 32l120 0 192 0 97.7 0c13.6 0 26.6 5.8 35.7 15.9L627.7 188.2c7.9 8.8 12.3 20.3 12.3 32.1L640 328c0 30.9-25.1 56-56 56zm-40 0a64 64 0 1 0 -128 0 64 64 0 1 0 128 0zM160 448a64 64 0 1 0 0-128 64 64 0 1 0 0 128z"/></svg>

<svg xmlns="http://www.w3.org/2000/svg" viewBox="0 0 640 512"><!--! Font Awesome Pro 6.4.2 by @fontawesome - https://fontawesome.com License - https://fontawesome.com/license (Commercial License) Copyright 2023 Fonticons, Inc. --><path d="M32 88V192H160V64H56C42.7 64 32 74.7 32 88zm0 136V328c0 13.3 10.7 24 24 24H69.5c13.2-37.3 48.7-64 90.5-64s77.4 26.7 90.5 64H389.5c13.2-37.3 48.7-64 90.5-64s77.4 26.7 90.5 64H584c13.3 0 24-10.7 24-24V224H368 176 32zm160-32H352V64H192V192zm192 0H588.1L477.6 69.3c-3-3.4-7.4-5.3-11.9-5.3H384V192zM584 384h-8c0 53-43 96-96 96s-96-43-96-96H256c0 53-43 96-96 96s-96-43-96-96H56c-30.9 0-56-25.1-56-56V88C0 57.1 25.1 32 56 32H176 368h97.7c13.6 0 26.6 5.8 35.7 15.9L627.7 188.2c7.9 8.8 12.3 20.3 12.3 32.1V328c0 30.9-25.1 56-56 56zm-40 0a64 64 0 1 0 -128 0 64 64 0 1 0 128 0zM160 448a64 64 0 1 0 0-128 64 64 0 1 0 0 128z"/></svg>
